X: 3209
T: PHILABEG
Q: "Highland Schottische."
R: Schottische.
%R: shottish
B: James Kerr "Merry Melodies" v.3 p.24 #209
Z: 2016 John Chambers <jc:trillian.mit.edu>
M: C
L: 1/8
K: Am
|:\
e<e d>B (B<A) A>c | B>AG>A B<d d<g |\
e<e d>B A2 (a>g) | (3edc (3ded (c<A) A2 :|
|:\
(A<a) a>b a>ge>^f | g>ed>c (B<G) G>B |\
(A<a) a>b a>ge>^f | (3g^fe (3dcB (c<A) A2 :|

%%sep 1 1 500
%%sep 1 1 500

